!!!COM: Corelli, Arcangelo
!!!OTL: 
!!!ONM: Opus 5, No. 5
!!!OMV: 4
!!!CDT: 1653/2/17/-1713/1/8/
!!!OCY: Italia
**kern	**kern
*clefC	*clefG
*k[b-]	*k[b-]
*d:	*d:
*M3/4	*M3/4
=1	=1
2.r	8dd
.	8gg
.	8bb-
.	8gg
.	8dd
.	8gg
=2	=2
8D	2ff#
8F#	.
8A	.
8F#	.
8D	4r
8F#	.
=3	=3
2G	8b-
.	8dd
.	8gg
.	8dd
4r	8b-
.	8g
=4	=4
8F	2a
8A	.
8c	.
8A	.
8F	4r
8A	.
=5	=5
2B-	8dd
.	8ff
.	8bb-
.	8ff
4r	8dd
.	8b-
=6	=6
8F	2cc
8A	.
8c	.
8A	.
8F	4r
8A	.
=7	=7
2G	8b-
.	8dd
.	8g
.	8b-
4r	8e-
.	8cc
=8	=8
8D	2dd
8F#	.
8A	.
8d	.
8A	4r
8F#	.
=9	=9
2D	8ff#
.	8aa
.	8ddd
.	8aa
4r	8ff#
.	8aa
=10	=10
8G	2bb-
8B-	.
8d	.
8B-	.
8G	4r
8B-	.
=11	=11
2c	8ee
.	8gg
.	8ccc
.	8gg
4r	8ee
.	8gg
=12	=12
8F	2aa
8A	.
8c	.
8A	.
8F	4r
8A	.
=13	=13
4B-	8dd
.	8ff
2G	8bb-
.	8gg
.	8ee
.	8gg
=14	=14
2A	8cc#
.	8ee
.	8aa
.	8a
4F	8dd
.	8aa
=15	=15
4G	8gg
.	8ff
4A	2ee 2a
4AA	.
=16	=16
8D	2.d 2.a 2.ff
8C	.
8D	.
8E-	.
8D	.
8C	.
=17	=17
2BB-	8dd
.	8ff
.	8bb-
.	8ff
4r	8dd
.	8ff
=18	=18
8F	2a
8A	.
8c	.
8A	.
8F	4r
8A	.
=19	=19
2G	8b-
.	8dd
.	8gg
.	8dd
4r	8b-
.	8dd
=20	=20
8d	2f#
8A	.
8d	.
8e-	.
8d	4r
8c	.
=21	=21
2B-	8dd
.	8gg
.	8bb-
.	8gg
4BB-	8dd
.	8gg
=22	=22
2C	8ee-
.	8cc
.	8dd
.	8f#
4BB-	8g
.	8dd
=23	=23
4C	8cc
.	8b-
2D	2d 2a
=24	=24
8GG	2.gg 2.b- 2.G 2.d
8G	.
8F	.
8E-	.
8D	.
8C	.
=25	=25
2BB-	8dd
.	8ff
.	8bb-
.	8ff
4r	8dd
.	8ff
=26	=26
8F	2a
8A	.
8c	.
8A	.
8F	4r
8A	.
=27	=27
2G	8b-
.	8dd
.	8gg
.	8dd
4r	8b-
.	8dd
=28	=28
8d	2f#
8A	.
8d	.
8e-	.
8d	4r
8c	.
=29	=29
2B-	8dd
.	8gg
.	8bb-
.	8gg
4BB-	8dd
.	8gg
=30	=30
2C	8ee-
.	8cc
.	8dd
.	8f#
4BB-	8g
.	8dd
=31	=31
4C	8cc
.	8b-
2D	2a 2d
=32	=32
2.GG	2.G 2.b- 2.gg 2.d
=33	=33
4G	8dd
.	8gg
2GG	8bb-
.	8gg
.	8dd
.	8gg
=34	=34
2D	8ff#
.	8aa
.	8dd
.	8ff#
4r	8a
.	8cc
=35	=35
4G	8b-
.	8dd
2GG	8gg
.	8dd
.	8b-
.	8g
=36	=36
2FF	8a
.	8cc
.	8ff
.	8cc
4r	8a
.	8cc
=37	=37
4B-	8dd
.	8ff
2BB-	8bb-
.	8ff
.	8dd
.	8b-
=38	=38
2F	8cc
.	8bb-
.	8aa
.	8cc
4r	8a
.	8cc
=39	=39
4G	8b-
.	8dd
2E-	8g
.	8b-
.	8e-
.	8cc
=40	=40
2.D	4dd
.	2d
=41	=41
4d	8ff#
.	8aa
2D	8ddd
.	8aa
.	8ff#
.	8aa
=42	=42
2G	8bb-
.	8ddd
.	8gg
.	8bb-
4r	8dd
.	8gg
=43	=43
4c	8ee
.	8gg
2C	8ccc
.	8gg
.	8ee
.	8gg
=44	=44
2F	8aa
.	8ccc
.	8ff
.	8aa
4r	8cc
.	8ff
=45	=45
4B-	8dd
.	8ff
2G	8bb-
.	8gg
.	8ee
.	8gg
=46	=46
4A	8cc#
.	8ee
4F	8a
.	8dd
4D	8f
.	8a
=47	=47
4BB-	8g
.	8cc#
4GG	8dd
.	8f
4AA	8A
.	8cc#
=48	=48
2.D	2.d
=49	=49
4B-	8dd
.	8ff
2BB-	8bb-
.	8ff
.	8dd
.	8ff
=50	=50
2F	8a
.	8cc
.	8ff
.	8cc
4r	8a
.	8cc
=51	=51
4G	8b-
.	8dd
2GG	8gg
.	8dd
.	8b-
.	8dd
=52	=52
2D	8f#
.	8a
.	8dd
.	8a
4r	8f#
.	8a
=53	=53
4B-	8dd
.	8gg
2BB-	8bb-
.	8gg
.	8dd
.	8gg
=54	=54
2C	8ee-
.	8cc
.	8dd
.	8f#
4BB-	8g
.	8dd
=55	=55
4C	8cc
.	8b-
2D	2a 2d
=56	=56
2.GG	2.gg 2.b- 2.G 2.d
=57	=57
4B-	8dd
.	8ff
2BB-	8bb-
.	8ff
.	8dd
.	8ff
=58	=58
2F	8a
.	8cc
.	8ff
.	8cc
4r	8a
.	8cc
=59	=59
4G	8b-
.	8dd
2GG	8gg
.	8dd
.	8b-
.	8dd
=60	=60
2D	8f#
.	8a
.	8dd
.	8a
4r	8f#
.	8a
=61	=61
4B-	8dd
.	8gg
2BB-	8bb-
.	8gg
.	8dd
.	8gg
=62	=62
2C	8ee-
.	8cc
.	8dd
.	8f#
4BB-	8g
.	8dd
=63	=63
4C	8cc
.	8b-
2D	2a 2d
=64	=64
2.GG	2.b- 2.gg 2.G 2.d
=65	=65
8G	4bb- 4gg
8F#	.
8G	2G
8A	.
8B-	.
8c	.
=66	=66
8d	2ff# 2aa
8D	.
8F#	.
8E	.
8F#	4r
8D	.
=67	=67
8G	4bb- 4gg
8F#	.
8G	2G
8A	.
8B-	.
8G	.
=68	=68
8F	2.aa 2.cc
8G	.
8F	.
8E-	.
8D	.
8C	.
=69	=69
8BB-	4bb- 4dd
8AA	.
8BB-	2B-
8C	.
8D	.
8E	.
=70	=70
8F	2cc 2aa
8E	.
8F	.
8G	.
8A	4r
8F#	.
=71	=71
8G	4gg 4b-
8F#	.
8G	2G
8A	.
8B-	.
8c	.
=72	=72
4d	2.a 2.ff#
2D	.
=73	=73
8d	4aa 4ff#
8e-	.
8d	2d
8c	.
8B-	.
8A	.
=74	=74
8G	2bb- 2gg
8F#	.
8G	.
8A	.
8B-	4r
8G	.
=75	=75
8c	4ee 4gg
8d	.
8c	2c
8B-	.
8A	.
8G	.
=76	=76
8F	2aa 2ff
8E	.
8F	.
8G	.
8A	4r
8F	.
=77	=77
8G	2bb- 2dd
8F	.
8G	.
8A	.
8B-	4r
8G	.
=78	=78
8A	4aa 4cc#
8c#	.
8d	8r
8A	8cc#
8B-	8dd
8F	8aa
=79	=79
8G	8gg
8D	8ff
4A	2a 2ee
4GG	.
=80	=80
2.D	2.ff 2.a 2.d
=81	=81
8BB-	4dd 4ff
8AA	.
8BB-	2B-
8C	.
8D	.
8E	.
=82	=82
8F	2cc 2a
8E	.
8F	.
8G	.
8A	4r
8F	.
=83	=83
8C	4ee- 4cc
8BB-	.
8C	2c
8D	.
8E-	.
8F	.
=84	=84
8G	2b- 2dd
8F#	.
8G	.
8A	.
8B-	4r
8G	.
=85	=85
8c	2ee- 2g
8B-	.
8c	.
8d	.
8e-	4r
8c	.
=86	=86
8d	4dd 4f#
8F#	.
8G	8r
8D	8ff#
8E-	8gg
8BB-	8dd
=87	=87
8C	8cc
8GG	8b-
4D	2d 2a
4DD	.
=88	=88
2.GG	2.gg 2.b- 2.d 2.G
==	==
*-	*-
!!!RWG: This file only contains pitch and duration data.
!!!RWG: Transposing instruments are not transposed.
!!!RWG: Durations of rests and tied notes may be interpreted.
!!!RWG: Key is interpreted using the Humdrum key tool.
!!!SCA: 
!!!YOR: 
!!!AGN: violin
!!!AFT: stage1
!!!ENC: F. Bennion
!!!END: 1997/04/15
!!!AST: baroque
!!!YEC: Copyright 1994, Center for Computer Assisted Research in the Humanities
!!!YEM: Rights to all derivative electronic formats reserved.
!!!YEM: Refer to licensing agreement for further details.
!!!YEN: United States of America
!!!EED: W.B. Hewlett
!!!KEY: 3900559544
!!!EMD: Converted from MuseData to Humdrum Aug 9, 1999, by Bret Aarden using muse2kern.
!!!VTS: 3483279561
